X:1
T:Music For A Found Harmonium
R:reel
M:4/4
L:1/8
K:D
DD|:FDGD FD2D|FDGD FD2D|FDGD FD2D|EDCD FD~D2:|
|:EDCD EDCD|FDCD FDCD|GDFD CDGD|1 FD~D2 D2DD:|2 FD~D2 D2E=F|]
|:=c=FEF GFEF|=c=FEF E2EF|=c=FEF GFEF|=c=FEF E2EF:|
|^A=FDF GFDF|^A=FDF GFDF|^A=FEF GE2G|^A=FEF GE2G|
|cGEG CG2G|cGEG CG2G|cGEG CG2G|cGEG CG2G|
|:FDGD FD2D|FDGD FD2D|FDGD FD2D|EDCD FD~D2:|
|:EDCD EDCD|FD=CD FDCD|GDFD CDGD|FD~D2 D2DD:|